X:110
T:Reels simple chords 240
M:3/4
L:1/8
K:D
(3ABc [d2D,2F,2A,2] df | ed cB [A2D,2F,2A,2] | AB AG FE | [DD,F,A,]F AF DG | BG [DD,F,A,]F AF |
GF ED [d2D,2F,2A,2] | df ed cB | [A2D,2F,2A,2] AB AG | FE [DD,F,A,]F Ad |
fe dc [d2D,2F,2A,2] | dc d2 (3ABc | [d2D,2F,2A,2] df ed | cB [A2D,2F,2A,2] AB |
AG FE [DD,F,A,]F | AF DG BG | [DD,F,A,]F AF GF | ED [d2D,2F,2A,2] df |
ed cB [A2D,2F,2A,2] | AB AG FE | [DD,F,A,]F Ad fe | dc [d2D,2F,2A,2] dc |
d2 cd [eA,CE]c | ec Ac ec | [fD,F,A,]d fd Ad | fd [gG,B,D]e ge |
fd fd [eE,^G,B,D]d | cB A2 DG | [BG,B,D]G BG DG | Bd [AD,F,A,]F AF |
DF Ad [FD,F,A,]A | de fe dc | [d2D,2F,2A,2] dc d2 | cd [eA,CE]c ec |
Ac ec [fD,F,A,]d | fd Ad fd | [gG,B,D]e ge fd | fd [eE,^G,B,D]d cB |
A2 DG [BG,B,D]G | BG DG Bd | [AD,F,A,]F AF DF | Ad [FD,F,A,]A de |
fe dc [d2D,2F,2A,2] | dc d2 |


